Origami/16x16/apps/frozen-bubble.svg

<svg width="16" height="16" version="1" xmlns="http://www.w3.org/2000/svg" xmlns:xlink="http://www.w3.org/1999/xlink">
 <defs>
  <linearGradient id="linearGradient4652" x1="30.577" x2="45" y1="19.129" y2="27.456" gradientTransform="matrix(.35294119 0 0 .39999997 .11764667 -.9999995)" gradientUnits="userSpaceOnUse">
   <stop style="stop-color:#7d329a" offset="0"/>
   <stop style="stop-color:#ac5cce" offset="1"/>
  </linearGradient>
 </defs>
 <path d="M 5.2093024,8.4530349 C 4.4529977,10.79197 3.0078263,13.386781 0,12.951889 0.19889091,10.995592 1.0110388,9.025922 2.1582847,7.4454244 2.4001262,7.1122546 2.8991342,6.9645467 3.1055454,6.6744183 Z" style="fill:#653578"/>
 <path d="m6.7134545 1.0000004c-1.7432534 0.026551-5.2337609 2.9667247-5.6664369 6.5024133-0.12459351 1.0181381 0.0033 2.1021984 0.3259964 3.1149763 0.1783406 3.178336 4.2179254 5.208836 6.7408579 5.381081 3.0865531 0.07513 5.9692591-2.637992 6.5357611-3.366197 1.036052-1.583064-0.43037-4.9956004-1.738648-6.9828796-1.435726-2.1808746-4.1121422-3.7688613-6.1975305-4.649394z" style="fill:#7d329a"/>
 <path d="m3.7675781 8.5117188c-0.6955991-0.0691537-1.3490019 0.1529532-1.8300781 0.6835937-0.3384345 0.3733028-0.5132787 0.9157485-0.5527344 1.5117185 0.1516334 1.896796 1.6780072 3.370823 3.4140625 4.279297 0.6444452 0.029058 1.2455727-0.185565 1.6953125-0.68164 0.9621521-1.061281 0.6762744-3.454232-0.6367187-4.726563-0.6564968-0.6361653-1.3942447-0.9972526-2.0898438-1.0664062z" style="fill:#fcf8fd"/>
 <path d="m11.68707 5c2.218548 0.8711007 4.679803 2.5356286 4.267295 6-1.855604-0.22908-3.723894-1.1645016-5.223043-2.4858823-0.316023-0.2785487-0.456127-0.8532995-0.731322-1.0910411z" style="fill:url(#linearGradient4652)"/>
 <path d="m5.9722068 8.0360649c0.3474065 1.7239001-2.6486165 3.5017321-4.151736 2.8113331-0.7234922-0.332307-0.84678066-1.5975091-0.8163007-2.5873491 0.0307239-0.8767581-0.04623235-1.1437189 0.7217789-1.2273869 1.4545239-0.1540028 4.0936007 0.2458836 4.2462578 1.0034029z" style="fill:#ffc102"/>
 <circle transform="scale(-1,1)" cx="-4.5" cy="5.5" r="2.5" style="fill:#ffffff"/>
 <circle transform="scale(-1,1)" cx="-4" cy="6" r="1" style="fill:#3f3f3f"/>
 <circle transform="scale(-1,1)" cx="-1.5" cy="6.5" r="1.5" style="fill:#ffffff"/>
 <circle transform="scale(-1,1)" cx="-1.5" cy="6.5" r=".5" style="fill:#3f3f3f"/>
</svg>

<svg xmlns="http://www.w3.org/2000/svg" xmlns:xlink="http://www.w3.org/1999/xlink" width="16" height="16" version="1">
 <defs>
  <linearGradient id="linearGradient4648">
   <stop style="stop-color:#7d329a" offset="0"/>
   <stop style="stop-color:#ac5cce" offset="1"/>
  </linearGradient>
  <linearGradient id="linearGradient4652" x1="30.577" x2="45" y1="19.129" y2="27.456" gradientTransform="matrix(0.35294119,0,0,0.39999997,0.11764667,-0.9999995)" gradientUnits="userSpaceOnUse" xlink:href="#linearGradient4648"/>
 </defs>
 <path style="fill:#653578" d="M 5.2093024,8.4530349 C 4.4529977,10.79197 3.0078263,13.386781 0,12.951889 0.19889091,10.995592 1.0110388,9.025922 2.1582847,7.4454244 2.4001262,7.1122546 2.8991342,6.9645467 3.1055454,6.6744183 Z"/>
 <path style="fill:#7d329a" d="m 6.7134545,1.0000004 c -1.7432534,0.026551 -5.2337609,2.9667247 -5.6664369,6.5024133 -0.12459351,1.0181381 0.0033,2.1021984 0.3259964,3.1149763 0.1783406,3.178336 4.2179254,5.208836 6.7408579,5.381081 3.0865531,0.07513 5.9692591,-2.637992 6.5357611,-3.366197 C 15.685685,11.04921 14.219263,7.6366736 12.910985,5.6493944 11.475259,3.4685198 8.7988428,1.8805331 6.7134545,1.0000004 Z"/>
 <path style="fill:#fcf8fd" d="M 3.7675781 8.5117188 C 3.071979 8.4425651 2.4185762 8.664672 1.9375 9.1953125 C 1.5990655 9.5686153 1.4242213 10.111061 1.3847656 10.707031 C 1.536399 12.603827 3.0627728 14.077854 4.7988281 14.986328 C 5.4432733 15.015386 6.0444008 14.800763 6.4941406 14.304688 C 7.4562927 13.243407 7.170415 10.850456 5.8574219 9.578125 C 5.2009251 8.9419597 4.4631772 8.5808724 3.7675781 8.5117188 z"/>
 <path style="fill:url(#linearGradient4652)" d="m 11.68707,5 c 2.218548,0.8711007 4.679803,2.5356286 4.267295,6 C 14.098761,10.77092 12.230471,9.8354984 10.731322,8.5141177 10.415299,8.235569 10.275195,7.6608182 10,7.4230766 Z"/>
 <path style="fill:#ffc102" d="M 5.9722068,8.0360649 C 6.3196133,9.759965 3.3235903,11.537797 1.8204708,10.847398 1.0969786,10.515091 0.97369014,9.2498889 1.0041701,8.2600489 1.034894,7.3832908 0.95793775,7.11633 1.725949,7.032662 3.1804729,6.8786592 5.8195497,7.2785456 5.9722068,8.0360649 Z"/>
 <circle style="fill:#ffffff" cx="-4.5" cy="5.5" r="2.5" transform="scale(-1,1)"/>
 <circle style="fill:#3f3f3f" cx="-4" cy="6" r="1" transform="scale(-1,1)"/>
 <circle style="fill:#ffffff" cx="-1.5" cy="6.5" r="1.5" transform="scale(-1,1)"/>
 <circle style="fill:#3f3f3f" cx="-1.5" cy="6.5" r=".5" transform="scale(-1,1)"/>
</svg>
